vectors/coreos.svg

<?xml version="1.0" encoding="UTF-8" standalone="no"?>
<svg
   xmlns:dc="http://purl.org/dc/elements/1.1/"
   xmlns:cc="http://creativecommons.org/ns#"
   xmlns:rdf="http://www.w3.org/1999/02/22-rdf-syntax-ns#"
   xmlns:svg="http://www.w3.org/2000/svg"
   xmlns="http://www.w3.org/2000/svg"
   xmlns:sodipodi="http://sodipodi.sourceforge.net/DTD/sodipodi-0.dtd"
   xmlns:inkscape="http://www.inkscape.org/namespaces/inkscape"
   xml:space="preserve"
   enable-background="new 0 0 222.068 222.068"
   viewBox="0 0 222.068 222.068"
   preserveAspectRatio="xMidYMin"
   y="0px"
   x="0px"
   id="Layer_1"
   version="1.1"
   inkscape:version="0.48.4 r9939"
   width="100%"
   height="100%"
   sodipodi:docname="coreos.svg"><sodipodi:namedview
     pagecolor="#ffffff"
     bordercolor="#666666"
     borderopacity="1"
     objecttolerance="10"
     gridtolerance="10"
     guidetolerance="10"
     inkscape:pageopacity="0"
     inkscape:pageshadow="2"
     inkscape:window-width="640"
     inkscape:window-height="480"
     id="namedview9"
     showgrid="false"
     inkscape:zoom="1.5029378"
     inkscape:cx="108.60847"
     inkscape:cy="107.98917"
     inkscape:window-x="1928"
     inkscape:window-y="238"
     inkscape:window-maximized="0"
     inkscape:current-layer="Layer_1" /><metadata
     id="metadata15"><rdf:RDF><cc:Work
         rdf:about=""><dc:format>image/svg+xml</dc:format><dc:type
           rdf:resource="http://purl.org/dc/dcmitype/StillImage" /><dc:title /></cc:Work></rdf:RDF></metadata><defs
     id="defs13" /><path
     style="fill:#000000"
     d="M 110.8125 3.15625 C 51.542504 3.15625 3.3125 51.364004 3.3125 110.625 C 3.3125 169.89 51.542504 218.125 110.8125 218.125 C 170.0645 218.125 218.28125 169.89 218.28125 110.625 C 218.28125 51.364004 170.0645 3.15625 110.8125 3.15625 z M 110.8125 13.03125 C 164.7155 13.03125 208.40525 56.713004 208.40625 110.625 C 208.40625 122.821 184.9415 133.3225 151.1875 138.0625 C 150.2985 138.1915 149.42325 138.3235 148.53125 138.4375 C 140.42025 139.4865 131.7365 140.19325 122.6875 140.53125 C 118.7925 140.67625 114.8355 140.75 110.8125 140.75 C 106.7775 140.75 102.81325 140.67725 98.90625 140.53125 C 89.86825 140.19325 81.19775 139.4865 73.09375 138.4375 C 72.37075 132.3905 71.87 126.097 71.625 119.625 C 71.508 116.669 71.46875 113.654 71.46875 110.625 C 71.46875 107.593 71.508 104.61825 71.625 101.65625 C 71.87 95.18325 72.37075 88.89075 73.09375 82.84375 C 73.23875 81.58475 73.3935 80.32975 73.5625 79.09375 C 78.8565 40.669752 93.529502 13.03125 110.8125 13.03125 z M 110.8125 61.84375 C 105.9735 61.84375 101.66525 69.248 98.90625 80.75 C 97.81025 85.336 96.95425 90.571 96.40625 96.25 C 95.97425 100.801 95.75 105.617 95.75 110.625 C 95.75 115.633 95.97425 120.48425 96.40625 125.03125 C 100.96025 125.46325 105.7975 125.6875 110.8125 125.6875 C 115.8215 125.6875 120.6335 125.46325 125.1875 125.03125 C 135.1985 124.08125 143.84675 122.161 149.96875 119.625 C 156.01475 117.124 159.59375 113.995 159.59375 110.625 C 159.59275 100.457 156.5045 91.03775 151.1875 83.21875 C 150.2085 81.79075 149.15025 80.40775 148.03125 79.09375 C 139.07525 68.53675 125.7395 61.84375 110.8125 61.84375 z "
     id="path5" /></svg>

<?xml version="1.0" encoding="UTF-8" standalone="no"?>
<svg
   xmlns:dc="http://purl.org/dc/elements/1.1/"
   xmlns:cc="http://creativecommons.org/ns#"
   xmlns:rdf="http://www.w3.org/1999/02/22-rdf-syntax-ns#"
   xmlns:svg="http://www.w3.org/2000/svg"
   xmlns="http://www.w3.org/2000/svg"
   xml:space="preserve"
   enable-background="new 0 0 222.068 222.068"
   viewBox="0 0 222.068 222.068"
   preserveAspectRatio="xMidYMin"
   y="0px"
   x="0px"
   id="Layer_1"
   version="1.1"><metadata
     id="metadata15"><rdf:RDF><cc:Work
         rdf:about=""><dc:format>image/svg+xml</dc:format><dc:type
           rdf:resource="http://purl.org/dc/dcmitype/StillImage" /><dc:title></dc:title></cc:Work></rdf:RDF></metadata><defs
     id="defs13" /><g
     id="g3"><path
       style="fill:#000000"
       id="path5"
       d="M110.804,3.163c-59.27,0-107.479,48.212-107.479,107.473c0,59.265,48.209,107.474,107.479,107.474   c59.252,0,107.465-48.209,107.465-107.474C218.269,51.375,170.056,3.163,110.804,3.163z"
       fill="#54A3DA" /><path
       style="fill:#ffffff"
       id="path7"
       d="M110.804,13.025c-17.283,0-31.941,27.645-37.235,66.069c-0.169,1.236-0.333,2.487-0.478,3.746   c-0.723,6.047-1.213,12.335-1.458,18.808c-0.117,2.962-0.175,5.956-0.175,8.988c0,3.029,0.058,6.029,0.175,8.985   c0.245,6.472,0.735,12.764,1.458,18.811c8.104,1.049,16.769,1.761,25.807,2.099c3.907,0.146,7.872,0.233,11.907,0.233   c4.023,0,8-0.088,11.895-0.233c9.049-0.338,17.708-1.05,25.819-2.099c0.892-0.114,1.77-0.239,2.659-0.368   c33.754-4.74,57.235-15.232,57.235-27.428C208.412,56.724,164.707,13.025,110.804,13.025z"
       fill="#F1616E" /><path
       style="fill:#000000;stroke:#000000"
       id="path9"
       d="M151.177,83.205c-0.979-1.428-2.029-2.796-3.148-4.11c-8.956-10.557-22.297-17.265-37.224-17.265   c-4.839,0-9.148,7.407-11.907,18.909c-1.096,4.586-1.947,9.819-2.495,15.498c-0.432,4.551-0.665,9.391-0.665,14.399   s0.233,9.849,0.665,14.396c4.554,0.432,9.387,0.664,14.402,0.664c5.009,0,9.842-0.232,14.396-0.664   c10.011-0.95,18.653-2.875,24.775-5.411c6.046-2.501,9.624-5.615,9.624-8.985C159.599,100.468,156.494,91.024,151.177,83.205z"
       fill="#FFFFFF" /></g></svg>
